react/assets/icons/walking.svg

<svg width="48" height="48" viewBox="0 0 24 24" fill="none" xmlns="http://www.w3.org/2000/svg" aria-labelledby="walkingIconTitle" stroke-linecap="square"><circle cx="13" cy="5" r="1"/><path d="M15 20l-1-3-3-3m0 0l1-5m-1 5l-3 6m4-11l3 3 2 1m-5-4l-3 2-1 3"/></svg>

<svg width="48px" height="48px" viewBox="0 0 24 24" fill="none" xmlns="http://www.w3.org/2000/svg" aria-labelledby="walkingIconTitle" stroke-linecap="square" stroke-linejoin="miter"> <title id="walkingIconTitle">Walking</title> <circle cx="13" cy="5" r="1"/> <path d="M15 20L14 17L11 14M11 14L12 9M11 14L8 20M12 9L15 12L17 13M12 9L9 11L8 14"/> </svg>
